poi/svg/1116.svg

<?xml version="1.0" encoding="UTF-8" standalone="no"?>
<svg
   xmlns:dc="http://purl.org/dc/elements/1.1/"
   xmlns:cc="http://creativecommons.org/ns#"
   xmlns:rdf="http://www.w3.org/1999/02/22-rdf-syntax-ns#"
   xmlns:svg="http://www.w3.org/2000/svg"
   xmlns="http://www.w3.org/2000/svg"
   xmlns:sodipodi="http://sodipodi.sourceforge.net/DTD/sodipodi-0.dtd"
   xmlns:inkscape="http://www.inkscape.org/namespaces/inkscape"
   inkscape:version="1.0 (4035a4fb49, 2020-05-01)"
   sodipodi:docname="1116.svg"
   id="svg20"
   version="1.2"
   viewBox="0 0 42.519639 42.519639"
   height="14.999999mm"
   width="14.999999mm">
  <metadata
     id="metadata24">
    <rdf:RDF>
      <cc:Work
         rdf:about="">
        <dc:format>image/svg+xml</dc:format>
        <dc:type
           rdf:resource="http://purl.org/dc/dcmitype/StillImage" />
        <dc:title>Qt SVG Document</dc:title>
      </cc:Work>
    </rdf:RDF>
  </metadata>
  <sodipodi:namedview
     inkscape:current-layer="svg20"
     inkscape:window-maximized="1"
     inkscape:window-y="-9"
     inkscape:window-x="-9"
     inkscape:cy="28.346482"
     inkscape:cx="28.346482"
     inkscape:zoom="18.047943"
     fit-margin-bottom="0"
     fit-margin-right="0"
     fit-margin-left="0"
     fit-margin-top="0"
     showgrid="false"
     id="namedview22"
     inkscape:window-height="1013"
     inkscape:window-width="1920"
     inkscape:pageshadow="2"
     inkscape:pageopacity="0"
     guidetolerance="10"
     gridtolerance="10"
     objecttolerance="10"
     borderopacity="1"
     bordercolor="#666666"
     pagecolor="#ffffff" />
  <title
     id="title2">Qt SVG Document</title>
  <desc
     id="desc4">Generated with Qt</desc>
  <defs
     id="defs6" />
  <g
     transform="translate(5.25984,5.25984)"
     id="g18"
     stroke-linejoin="bevel"
     stroke-linecap="square"
     fill-rule="evenodd"
     stroke-width="1"
     stroke="#000000"
     fill="none">
    <g
       id="g10"
       font-style="normal"
       font-weight="400"
       font-size="7.8px"
       font-family="'MS Shell Dlg 2'"
       stroke="none"
       fill-opacity="1"
       fill="#3d97f1">
      <path
         id="path8"
         d="M 37.2598,16 C 37.2598,27.7415 27.7415,37.2598 16,37.2598 4.25851,37.2598 -5.25984,27.7415 -5.25984,16 -5.25984,4.25851 4.25851,-5.25984 16,-5.25984 27.7415,-5.25984 37.2598,4.25851 37.2598,16"
         fill-rule="evenodd"
         vector-effect="non-scaling-stroke" />
    </g>
    <g
       id="g14"
       font-style="normal"
       font-weight="400"
       font-size="7.8px"
       font-family="'MS Shell Dlg 2'"
       transform="translate(16,13.7323)"
       stroke="none"
       fill-opacity="0.94902"
       fill="#ffffff">
      <path
         id="path12"
         d="M 0.306152,8.45605 C 1.25798,9.22591 2.06982,9.91878 2.7417,10.5347 c 0.67187,0.6159 1.25277,1.1897 1.74268,1.7216 0.4899,0.5319 0.89933,1.0464 1.22827,1.5433 0.32894,0.4969 0.61938,1.0043 0.87133,1.5222 h -13.4165 c 0.11198,-0.112 0.32544,-0.3185 0.64038,-0.6194 0.31494,-0.301 0.62988,-0.6509 0.94483,-1.0498 0.31494,-0.3989 0.57389,-0.8294 0.77685,-1.2913 0.20296,-0.4619 0.24845,-0.9028 0.13648,-1.3227 C -4.44596,10.6326 -4.61043,10.2127 -4.82739,9.77881 -5.04435,9.34489 -5.21582,8.92147 -5.3418,8.50854 -5.46777,8.09562 -5.50977,7.6897 -5.46777,7.29077 -5.42578,6.89185 -5.19482,6.50342 -4.7749,6.12549 -4.31299,5.74756 -3.76709,5.41512 -3.13721,5.12817 -2.50732,4.84123 -1.87044,4.60677 -1.22656,4.4248 -0.582682,4.24284 0.0262044,4.09237 0.600098,3.97339 1.17399,3.85441 1.6359,3.76693 1.98584,3.71094 2.1818,3.76693 2.38477,3.82992 2.59473,3.8999 2.7627,3.95589 2.94816,4.01888 3.15112,4.08887 3.35409,4.15885 3.55355,4.22184 3.74951,4.27783 3.66553,4.30583 3.45907,4.38281 3.13013,4.50879 2.80119,4.63477 2.43376,4.79924 2.02783,5.0022 1.62191,5.20516 1.21948,5.43612 0.820557,5.69507 0.421631,5.95402 0.106689,6.22697 -0.124268,6.51392 -0.355225,6.80086 -0.456706,7.10881 -0.428711,7.43774 -0.400716,7.76668 -0.155762,8.10612 0.306152,8.45605 M 12.7358,0.666504 h -0.1259 c 0.1959,0.083984 0.3499,0.181966 0.4619,0.293945 0.084,0 0.1644,0.013998 0.2414,0.041991 0.077,0.028 0.1575,0.07699 0.2415,0.14697 v 3.7793 C 11.945,3.45898 9.99235,2.25521 7.69678,1.31738 5.34521,0.393555 2.85368,-0.0683594 0.222168,-0.0683594 c -1.455728,0 -2.830978,0.1294759 -4.125728,0.3884274 -1.29476,0.258952 -2.54403,0.619385 -3.74781,1.081302 -2.40753,1.0358 -4.38123,2.36556 -5.92093,3.98926 V 1.31738 c 0.14,-0.05599 0.273,-0.10848 0.399,-0.15747 0.1259,-0.04899 0.2309,-0.11548 0.3149,-0.199461 0.126,-0.055989 0.245,-0.10498 0.3569,-0.146972 0.112,-0.041993 0.238,-0.090984 0.378,-0.146973 V -2.94482 c -0.14,0.11197 -0.266,0.18896 -0.378,0.23095 -0.1119,0.04199 -0.2309,0.09099 -0.3569,0.14698 -0.14,0.05599 -0.259,0.10148 -0.3569,0.13647 -0.098,0.03499 -0.217,0.08049 -0.357,0.13647 v -1.09179 c 0.224,-0.11198 0.4619,-0.20996 0.7139,-0.29395 0.126,-0.05599 0.245,-0.09798 0.3569,-0.12597 0.112,-0.028 0.238,-0.06999 0.378,-0.12598 V -4.1416 c 0,-0.18197 0.1049,-0.27295 0.3149,-0.27295 0.168,0 0.252,0.09098 0.252,0.27295 0.4339,-0.15397 0.8573,-0.29395 1.2702,-0.41992 0.41295,-0.12598 0.86436,-0.25896 1.35427,-0.39893 0.46192,-0.08398 0.94133,-0.17847 1.43823,-0.28345 0.49691,-0.10498 1.00432,-0.19946 1.52222,-0.28344 v -0.08399 c 0,-0.08398 0.007,-0.15397 0.021,-0.20996 0.01399,-0.05599 0.09098,-0.08398 0.23095,-0.08398 0.12598,0 0.18897,0.09798 0.18897,0.29394 0.88183,-0.13997 1.78117,-0.25545 2.698,-0.34643 0.91683,-0.09099 1.879147,-0.13648 2.8869592,-0.13648 v -0.08398 c 0,-0.11198 0.0839848,-0.16797 0.2519528,-0.16797 0.167969,0 0.251953,0.05599 0.251953,0.16797 v 0.08398 c 1.007815,0.06999 1.963135,0.13298 2.865965,0.18897 0.90283,0.05599 1.81616,0.15397 2.73999,0.29394 0,-0.08398 0.007,-0.15397 0.021,-0.20996 0.014,-0.05599 0.09098,-0.08398 0.23096,-0.08398 0.11197,0 0.16796,0.09798 0.16796,0.29394 v 0.08399 c 1.00782,0.16796 1.96664,0.38492 2.87647,0.65088 0.48991,0.08398 0.95885,0.19596 1.40675,0.33593 0.4479,0.13998 0.8818,0.30095 1.3017,0.48291 V -4.1416 c 0,-0.18197 0.091,-0.27295 0.273,-0.27295 0.196,0 0.2939,0.09098 0.2939,0.27295 v 0.20996 c 0.112,0.11198 0.224,0.16797 0.336,0.16797 0.084,0.05599 0.1644,0.08398 0.2414,0.08398 0.077,0 0.1575,0.028 0.2415,0.08399 v 1.11279 c -0.084,-0.05599 -0.1645,-0.08398 -0.2415,-0.08398 -0.077,0 -0.1574,-0.028 -0.2414,-0.08399 -0.056,-0.05599 -0.112,-0.09098 -0.168,-0.10498 -0.056,-0.014 -0.112,-0.04899 -0.168,-0.10498 V 0.666504 M -6.66455,-4.41455 c -0.44792,0.08398 -0.82235,0.16447 -1.12329,0.24145 -0.30095,0.07699 -0.68237,0.18547 -1.14429,0.32544 -0.48991,0.08399 -0.85034,0.16097 -1.08127,0.23096 -0.231,0.06999 -0.5634,0.20996 -0.9973,0.41992 v 3.527346 c 0.4339,-0.209961 0.7803,-0.3569332 1.03926,-0.440918 0.25896,-0.083984 0.63339,-0.195963 1.1233,-0.335937 0.46191,-0.153971 0.82934,-0.258952 1.10229,-0.314941 0.27295,-0.05599 0.63338,-0.139974 1.0813,-0.25195 v -3.40137 m 6.235839,-0.62988 c -0.965819,0.05599 -1.774169,0.11897 -2.425049,0.18896 -0.65088,0.06999 -1.41724,0.16097 -2.29907,0.27295 v 3.40137 c 0.46191,-0.08399 0.87833,-0.16097 1.24927,-0.23096 0.37093,-0.06999 0.73486,-0.12948 1.09179,-0.17847 0.35694,-0.04899 0.72087,-0.08748 1.0918,-0.11547 0.37093,-0.028 0.80135,-0.042 1.291259,-0.042 V -5.04443 M 5.59717,-4.7085 c -0.43392,-0.05599 -0.79435,-0.08398 -1.0813,-0.08398 -0.28695,0 -0.67538,-0.028 -1.16528,-0.08398 -0.44792,-0.05599 -0.82935,-0.08399 -1.14429,-0.08399 -0.31494,0 -0.73137,-0.02799 -1.249269,-0.08398 v 3.29638 c 0.489909,0 0.885339,0.007 1.186279,0.021 0.30094,0.014 0.70337,0.08398 1.20728,0.20996 0.4899,0.05599 0.86434,0.08398 1.12329,0.08398 0.25895,0 0.63338,0.028 1.12329,0.08399 V -4.7085 M 11.707,-3.19678 C 10.8112,-3.49072 10.0413,-3.72168 9.39746,-3.88965 8.75358,-4.05762 7.94873,-4.23258 6.98291,-4.41455 v 3.40137 c 0.47591,0.111976 0.89583,0.206458 1.25977,0.283444 0.36393,0.076985 0.76985,0.21346 1.21777,0.409423 0.48991,0.139974 0.86435,0.2449549 1.12325,0.31494191 C 10.8427,0.0646159 11.2171,0.20459 11.707,0.414551 V -3.19678"
         fill-rule="evenodd"
         vector-effect="none" />
    </g>
    <g
       id="g16"
       font-style="normal"
       font-weight="400"
       font-size="7.8px"
       font-family="'MS Shell Dlg 2'"
       stroke="none"
       fill-opacity="1"
       fill="#3d97f1" />
  </g>
</svg>

<?xml version="1.0" encoding="UTF-8" standalone="no"?>
<svg width="11.2889mm" height="11.2889mm"
 viewBox="0 0 32 32"
 xmlns="http://www.w3.org/2000/svg" xmlns:xlink="http://www.w3.org/1999/xlink"  version="1.2" baseProfile="tiny">
<title>Qt SVG Document</title>
<desc>Generated with Qt</desc>
<defs>
</defs>
<g fill="none" stroke="black" stroke-width="1" fill-rule="evenodd" stroke-linecap="square" stroke-linejoin="bevel" >

<g fill="#3d97f1" fill-opacity="1" stroke="none" transform="matrix(1,0,0,1,0,0)"
font-family="MS Shell Dlg 2" font-size="7.8" font-weight="400" font-style="normal" 
>
<path vector-effect="non-scaling-stroke" fill-rule="evenodd" d="M37.2598,16 C37.2598,27.7415 27.7415,37.2598 16,37.2598 C4.25851,37.2598 -5.25984,27.7415 -5.25984,16 C-5.25984,4.25851 4.25851,-5.25984 16,-5.25984 C27.7415,-5.25984 37.2598,4.25851 37.2598,16 "/>
</g>

<g fill="#ffffff" fill-opacity="0.94902" stroke="none" transform="matrix(1,0,0,1,16,13.7323)"
font-family="MS Shell Dlg 2" font-size="7.8" font-weight="400" font-style="normal" 
>
<path vector-effect="none" fill-rule="evenodd" d="M0.306152,8.45605 C1.25798,9.22591 2.06982,9.91878 2.7417,10.5347 C3.41357,11.1506 3.99447,11.7244 4.48438,12.2563 C4.97428,12.7882 5.38371,13.3027 5.71265,13.7996 C6.04159,14.2965 6.33203,14.8039 6.58398,15.3218 L-6.83252,15.3218 C-6.72054,15.2098 -6.50708,15.0033 -6.19214,14.7024 C-5.8772,14.4014 -5.56226,14.0515 -5.24731,13.6526 C-4.93237,13.2537 -4.67342,12.8232 -4.47046,12.3613 C-4.2675,11.8994 -4.22201,11.4585 -4.33398,11.0386 C-4.44596,10.6326 -4.61043,10.2127 -4.82739,9.77881 C-5.04435,9.34489 -5.21582,8.92147 -5.3418,8.50854 C-5.46777,8.09562 -5.50977,7.6897 -5.46777,7.29077 C-5.42578,6.89185 -5.19482,6.50342 -4.7749,6.12549 C-4.31299,5.74756 -3.76709,5.41512 -3.13721,5.12817 C-2.50732,4.84123 -1.87044,4.60677 -1.22656,4.4248 C-0.582682,4.24284 0.0262044,4.09237 0.600098,3.97339 C1.17399,3.85441 1.6359,3.76693 1.98584,3.71094 C2.1818,3.76693 2.38477,3.82992 2.59473,3.8999 C2.7627,3.95589 2.94816,4.01888 3.15112,4.08887 C3.35409,4.15885 3.55355,4.22184 3.74951,4.27783 C3.66553,4.30583 3.45907,4.38281 3.13013,4.50879 C2.80119,4.63477 2.43376,4.79924 2.02783,5.0022 C1.62191,5.20516 1.21948,5.43612 0.820557,5.69507 C0.421631,5.95402 0.106689,6.22697 -0.124268,6.51392 C-0.355225,6.80086 -0.456706,7.10881 -0.428711,7.43774 C-0.400716,7.76668 -0.155762,8.10612 0.306152,8.45605 M12.7358,0.666504 L12.6099,0.666504 C12.8058,0.750488 12.9598,0.84847 13.0718,0.960449 C13.1558,0.960449 13.2362,0.974447 13.3132,1.00244 C13.3902,1.03044 13.4707,1.07943 13.5547,1.14941 L13.5547,4.92871 C11.945,3.45898 9.99235,2.25521 7.69678,1.31738 C5.34521,0.393555 2.85368,-0.0683594 0.222168,-0.0683594 C-1.23356,-0.0683594 -2.60881,0.0611165 -3.90356,0.320068 C-5.19832,0.57902 -6.44759,0.939453 -7.65137,1.40137 C-10.0589,2.43717 -12.0326,3.76693 -13.5723,5.39063 L-13.5723,1.31738 C-13.4323,1.26139 -13.2993,1.2089 -13.1733,1.15991 C-13.0474,1.11092 -12.9424,1.04443 -12.8584,0.960449 C-12.7324,0.90446 -12.6134,0.855469 -12.5015,0.813477 C-12.3895,0.771484 -12.2635,0.722493 -12.1235,0.666504 L-12.1235,-2.94482 C-12.2635,-2.83285 -12.3895,-2.75586 -12.5015,-2.71387 C-12.6134,-2.67188 -12.7324,-2.62288 -12.8584,-2.56689 C-12.9984,-2.5109 -13.1174,-2.46541 -13.2153,-2.43042 C-13.3133,-2.39543 -13.4323,-2.34993 -13.5723,-2.29395 L-13.5723,-3.38574 C-13.3483,-3.49772 -13.1104,-3.5957 -12.8584,-3.67969 C-12.7324,-3.73568 -12.6134,-3.77767 -12.5015,-3.80566 C-12.3895,-3.83366 -12.2635,-3.87565 -12.1235,-3.93164 L-12.1235,-4.1416 C-12.1235,-4.32357 -12.0186,-4.41455 -11.8086,-4.41455 C-11.6406,-4.41455 -11.5566,-4.32357 -11.5566,-4.1416 C-11.1227,-4.29557 -10.6993,-4.43555 -10.2864,-4.56152 C-9.87345,-4.6875 -9.42204,-4.82048 -8.93213,-4.96045 C-8.47021,-5.04443 -7.9908,-5.13892 -7.4939,-5.2439 C-6.99699,-5.34888 -6.48958,-5.44336 -5.97168,-5.52734 L-5.97168,-5.61133 C-5.97168,-5.69531 -5.96468,-5.7653 -5.95068,-5.82129 C-5.93669,-5.87728 -5.8597,-5.90527 -5.71973,-5.90527 C-5.59375,-5.90527 -5.53076,-5.80729 -5.53076,-5.61133 C-4.64893,-5.7513 -3.74959,-5.86678 -2.83276,-5.95776 C-1.91593,-6.04875 -0.953613,-6.09424 0.0541992,-6.09424 L0.0541992,-6.17822 C0.0541992,-6.2902 0.138184,-6.34619 0.306152,-6.34619 C0.474121,-6.34619 0.558105,-6.2902 0.558105,-6.17822 L0.558105,-6.09424 C1.56592,-6.02425 2.52124,-5.96126 3.42407,-5.90527 C4.3269,-5.84928 5.24023,-5.7513 6.16406,-5.61133 C6.16406,-5.69531 6.17106,-5.7653 6.18506,-5.82129 C6.19906,-5.87728 6.27604,-5.90527 6.41602,-5.90527 C6.52799,-5.90527 6.58398,-5.80729 6.58398,-5.61133 L6.58398,-5.52734 C7.5918,-5.35938 8.55062,-5.14242 9.46045,-4.87646 C9.95036,-4.79248 10.4193,-4.6805 10.8672,-4.54053 C11.3151,-4.40055 11.749,-4.23958 12.1689,-4.05762 L12.1689,-4.1416 C12.1689,-4.32357 12.2599,-4.41455 12.4419,-4.41455 C12.6379,-4.41455 12.7358,-4.32357 12.7358,-4.1416 L12.7358,-3.93164 C12.8478,-3.81966 12.9598,-3.76367 13.0718,-3.76367 C13.1558,-3.70768 13.2362,-3.67969 13.3132,-3.67969 C13.3902,-3.67969 13.4707,-3.65169 13.5547,-3.5957 L13.5547,-2.48291 C13.4707,-2.5389 13.3902,-2.56689 13.3132,-2.56689 C13.2362,-2.56689 13.1558,-2.59489 13.0718,-2.65088 C13.0158,-2.70687 12.9598,-2.74186 12.9038,-2.75586 C12.8478,-2.76986 12.7918,-2.80485 12.7358,-2.86084 L12.7358,0.666504 M-6.66455,-4.41455 C-7.11247,-4.33057 -7.4869,-4.25008 -7.78784,-4.1731 C-8.08879,-4.09611 -8.47021,-3.98763 -8.93213,-3.84766 C-9.42204,-3.76367 -9.78247,-3.68669 -10.0134,-3.6167 C-10.2444,-3.54671 -10.5768,-3.40674 -11.0107,-3.19678 L-11.0107,0.330566 C-10.5768,0.120605 -10.2304,-0.0263672 -9.97144,-0.110352 C-9.71248,-0.194336 -9.33805,-0.306315 -8.84814,-0.446289 C-8.38623,-0.60026 -8.0188,-0.705241 -7.74585,-0.76123 C-7.4729,-0.81722 -7.11247,-0.901204 -6.66455,-1.01318 L-6.66455,-4.41455 M-0.428711,-5.04443 C-1.39453,-4.98844 -2.20288,-4.92546 -2.85376,-4.85547 C-3.50464,-4.78548 -4.271,-4.6945 -5.15283,-4.58252 L-5.15283,-1.18115 C-4.69092,-1.26514 -4.2745,-1.34212 -3.90356,-1.41211 C-3.53263,-1.4821 -3.1687,-1.54159 -2.81177,-1.59058 C-2.45483,-1.63957 -2.0909,-1.67806 -1.71997,-1.70605 C-1.34904,-1.73405 -0.91862,-1.74805 -0.428711,-1.74805 L-0.428711,-5.04443 M5.59717,-4.7085 C5.16325,-4.76449 4.80282,-4.79248 4.51587,-4.79248 C4.22892,-4.79248 3.84049,-4.82048 3.35059,-4.87646 C2.90267,-4.93245 2.52124,-4.96045 2.2063,-4.96045 C1.89136,-4.96045 1.47493,-4.98844 0.957031,-5.04443 L0.957031,-1.74805 C1.44694,-1.74805 1.84237,-1.74105 2.14331,-1.72705 C2.44425,-1.71305 2.84668,-1.64307 3.35059,-1.51709 C3.84049,-1.4611 4.21493,-1.43311 4.47388,-1.43311 C4.73283,-1.43311 5.10726,-1.40511 5.59717,-1.34912 L5.59717,-4.7085 M11.707,-3.19678 C10.8112,-3.49072 10.0413,-3.72168 9.39746,-3.88965 C8.75358,-4.05762 7.94873,-4.23258 6.98291,-4.41455 L6.98291,-1.01318 C7.45882,-0.901204 7.87874,-0.806722 8.24268,-0.729736 C8.60661,-0.652751 9.01253,-0.516276 9.46045,-0.320313 C9.95036,-0.180339 10.3248,-0.0753581 10.5837,-0.00537109 C10.8427,0.0646159 11.2171,0.20459 11.707,0.414551 L11.707,-3.19678"/>
</g>

<g fill="#3d97f1" fill-opacity="1" stroke="none" transform="matrix(1,0,0,1,0,0)"
font-family="MS Shell Dlg 2" font-size="7.8" font-weight="400" font-style="normal" 
>
</g>
</g>
</svg>
